!!!!SEGMENT: pl-wtm--1691-fp-5849_stojowski-zygmunt--arabesque-op-19-no-1.krn
!!!cenid: 19xx:159
!!!COM: Stojowski, Zygmunt
!!!COM-rismID: pe41019736
!!!CDT: 1870-1946
!!!CNT: Polish
!!!OTL: Arabesque Op. 19 No. 1
!!!PDT:
!!!AGN:
!!!YEC: Copyright 2022 Narodowy Instytut Fryderyka Chopina (https://polishscores.org)
!!!YEM: License CC-BY-4.0 (https://creativecommons.org/licenses/by/4.0)
!!!SMS-siglum: PL-Wtm
!!!SMS-shelfmark: 1691 fp 5849
!!!SMS-variant:
!!!SMS-altvar:
!!!SMS-shelfwork: W
!!!NIFC-rismSourceID: 1001216353
!!!NIFC-rismChildID: 1001216353
!!!NIFC-islandoraID: pl-wtm:85725
!!!URL-pdf-islandora: https://repozytorium.nifc.pl/islandora/object/pl-wtm%3A85725/datastream/PDF/view
!!!URL-scan: https://polish.musicsources.pl/pl/lokalizacje/galeria/druki-muzyczne/18908/3 @EN{Scan on Polish Music Sources Website} @PL{Skany w portalu Dziedzictwo Muzyki Polskiej w otwartym dostępie}
!!!IIIF:
!!!ONB-nifc:
!!!AIN: 1 piano
!!!key: A
**kern	**fing	**kern	**fing	**dynam
*part1	*	*part1	*	*part1
*staff2	*	*staff1	*	*staff1/2
*group1	*	*group1	*	*
*ICklav	*	*ICklav	*	*
*Ipiano	*	*Ipiano	*	*
*I"PIANO.	*	*I"PIANO.	*	*
*	*	*I'	*	*
*clefF4	*	*clefG2	*	*
*k[f#c#g#]	*	*k[f#c#g#]	*	*
*A:	*	*A:	*	*
*M4/4	*	*M4/4	*	*
*met(c)	*	*met(c)	*	*
=1	=1	=1	=1	=1
*	*	*^	*	*
!	!	!LO:TX:a:B:t=Allegretto moderato.	!	!	!LO:DY:t=%s con grazia
8c#: 8E: 8AA:\	.	4ryy	8r	.	p
.	.	.	(16qqcc#/LL	.	.
.	.	.	16qqdd/JJ	.	.
8r	.	.	(<8cc#\L)	2	.
4r	.	4.aa/	8ff#\	4 5	.
.	.	.	8ee\J	.	.
8r	.	.	8cc#\)	.	.
(16qqa/LL	.	.	.	.	.
16qqb/JJ	.	.	.	.	.
(8a\L)	.	8r	8ryy	.	.
8e\	.	4r	4ryy	.	.
8f#\J)	.	.	.	.	.
*	*	*v	*v	*	*
=2	=2	=2	=2	=2
8r	.	(4.g#/	.	.
(8B\L	.	.	.	.
8e\	.	.	.	.
8d\J)	.	8b\	.	.
8r	.	4.e/	.	.
(8c#\L	.	.	.	.
8B\	.	.	.	.
8A\J)	.	8f#/)	.	.
=3	=3	=3	=3	=3
8r	.	(8B/L	.	.
(8A\L	.	8c#/J	.	.
8F#\	.	4d/	.	.
8G#\J)	.	.	.	.
8r	.	4c#/	.	.
(8A\L	.	.	.	.
8G#\	.	4e/	.	.
8F#\J)	.	.	.	.
!!LO:LB:g=original
=4	=4	=4	=4	=4
*^	*	*	*	*
(4.B/	1E	.	8g#/L	.	.
.	.	.	8a/J	.	.
.	.	.	[4b\	.	.
8A/	.	.	.	.	.
8G#/L	.	.	8b\L]	.	.
8A/	.	.	8cc#\J	.	.
8F#/	.	.	4dd\)	.	.
8G#/J)	.	.	.	.	.
*v	*v	*	*	*	*
=5	=5	=5	=5	=5
*	*	*^	*	*
8EL 8AA'\	.	4ryy	8r	.	.
.	.	.	(16qqcc#/LL	.	.
.	.	.	16qqdd/JJ	.	.
8A'\J	.	.	(<8cc#\L)	.	.
8c#'\	.	4aa/	8ff#\	.	.
8r	.	.	8ee\J	.	.
8r	.	2ryy	8cc#\)	.	.
(16qqa/LL	.	.	.	.	.
16qqb/JJ	.	.	.	.	.
(8a\L)	.	.	8r	.	.
8e\	.	.	4r	.	.
8f#\J)	.	.	.	.	.
*	*	*v	*v	*	*
=6	=6	=6	=6	=6
8r	.	(4.gn/	1	.
!	!	!	!	!LO:DY:t=poco rinforzando
(8A#X\L	.	.	.	rfz
8B\	.	.	.	.
8d\J)	.	8b\	.	.
8r	.	4.ee\	.	.
(16qqc#/LL	.	.	.	.
16qqd/JJ	.	.	.	.
(8c#\L)	.	.	.	.
8B\	.	.	.	.
8An\J)	.	8cc#\)	.	.
!!LO:LB:g=original
=7	=7	=7	=7	=7
8r	.	(4.f#/	.	.
(8G#X\L	.	.	.	.
8A\	.	.	.	.
8cn\J)	.	8a/	.	.
8r	.	4.dd\	.	.
(<16qqB/LL	.	.	.	.
16qqc#X/JJ	.	.	.	.
(8B\L)	.	.	.	.
8A\	.	.	.	.
8G#\J)	.	8b\)	.	.
=8	=8	=8	=8	=8
8r	.	(4.e#X/	.	.
(8F##X\L	.	.	.	.
8G#\	.	.	.	.
8B\J	.	[8g#/	.	.
8A\L	.	8g#/L]	.	>
!LO:N:acc=n#	!	!	!	!
8F#X\	.	8f#/J	.	.
8C#\	.	[4a/)	.	]]
8D#X\J)	.	.	.	.
=9	=9	=9	=9	=9
8E\	.	(8a/L]	.	.
8r	.	8g#/	.	p
8r	.	8b/	.	.
*	*below	*	*below	*
(8F#\	4	8a/J	1	.
8A\L	.	8cc#\L	.	.
8G#\	.	8b\	.	<
8B\	1	8dd\	.	.
8A\J	4	8cc#\J	.	.
!!LO:LB:g=original
=10	=10	=10	=10	=10
!	!	!LO:TUP:a:problem:klamra łukowa	!	!
8c#\L	.	12ee\L	.	.
.	.	12dd\	.	.
8B\	.	.	.	.
.	.	12ff#\J	.	.
!	!	!LO:TUP:a:problem:klamra łukowa	!	!
8d\	1	12ee\L	.	.
.	.	12b\	.	.
8c#\J	4	.	.	.
.	.	12cc#\J	.	[
*clefG2	*	*	*	*
!	!	!LO:TUP:b:problem:klamra łukowa	!	!
8e/L	.	12a/L	.	.
.	.	12g#/	.	.
8d/	.	.	.	.
.	.	12b/J	.	.
!	!	!LO:TUP:a:problem:klamra łukowa	!	!
8f#/	1	12a\L	.	.
.	.	12b\	.	.
8e/J)	.	.	.	.
.	.	12cc#\J)	.	.
=11	=11	=11	=11	=11
*^	*	*^	*	*
*Xbrackettup	*	*	*Xbrackettup	*	*	*
!	!	!	!	!	!	!LO:DY:t=%s espress.
(12d/L	(4d\	3	((6ff#~/	4ff#\	.	p
!	!	!	!	!	!	!LO:HP:a
12b/J)	.	.	.	.	.	>
12r	.	.	12g#/)	.	.	.
*	*	*	*Xtuplet	*	*	*
(12c#/L	4c#\	4	(6ee/	4ee\	.	]
12b/J)	.	.	.	.	.	.
12r	.	.	12g#/)	.	.	.
*Xtuplet	*	*	*	*	*	*
(12d/L	4d\	.	(6ff#~/	4ff#\	.	.
!	!	!	!	!	!	!LO:HP:t=poco cresc.
12b/J)	.	.	.	.	.	<
12r	.	.	12g#/)	.	.	.
(12c#/L	4c#\	.	(6ee/	4ee\	.	.
12b/J)	.	.	.	.	.	.
12r	.	.	12g#/)	.	.	.
=12	=12	=12	=12	=12	=12	=12
(12d/L	4d\	.	6ff#/	4ff#\	.	.
12b/J)	.	.	.	.	.	.
12r	.	.	12g#\	.	.	.
(12c#/L	4c#\	.	6ff##X/	4ff##\	.	.
12b/J)	.	.	.	.	.	.
12r	.	.	12a\	.	.	.
*	*	*	*	*	*above	*
(12e/L	4e 4cn\	4	6gg#/	4gg#\	4	.
12b/J)	.	.	.	.	.	.
12r	.	.	12a\	.	.	.
(12d#X/L	4B\)	5	6aa/)	4aa\	.	.
12b/J)	.	.	.	.	.	.
12r	.	.	12a\	.	.	.
*v	*v	*	*	*	*	*
*	*	*v	*v	*	*
*clefF4	*	*	*	*
!!LO:PB:g=original
=13	=13	=13	=13	=13
8B 8E\	.	(>12g#/L	.	.
.	.	12b/	.	.
8r	.	.	.	.
.	.	12g#/J	.	.
12ryy	.	12e/L	.	.
12ryy	.	12B</J	.	.
12G#\	.	12ryy	.	.
12E\L	.	4ryy	.	>
12G#\	.	.	.	.
12B\J	.	.	.	.
4ryy	.	12e/L	.	.
.	.	12g#/	.	.
.	.	12b/J)	.	]
=14	=14	=14	=14	=14
*^	*	*^	*	*
!LO:TX:b:i:t=m.s.sopra	!	!	!	!	!	!
(4A/	(12A\L	.	(6cc#~/	4cc#\	.	p
!	!	!	!	!	!	!LO:HP:a
.	12f#\J)	.	.	.	.	>
.	12rD	.	12d#X/	.	.	.
4G#/	(12G#\L	.	6b/	4b\	.	]
.	12f#\J)	.	.	.	.	.
.	12rD	.	12dn#/	.	.	.
4A/	(12A\L	.	6cc#/	4cc#\	.	.
.	12f#\J)	.	.	.	.	.
.	12rD	.	12d#/	.	.	.
4G#/	(12G#\L	.	6b/	4b\	.	.
!	!	!	!	!	!	!LO:HP:t=poco a poco cresc.
.	12f#\J)	.	.	.	.	<
.	12rD	.	12d#/	.	.	.
=15	=15	=15	=15	=15	=15	=15
4A/	(12A\L	.	6cc#/	4cc#\	.	.
.	12f#\J)	.	.	.	.	.
.	12rD	.	12d#X/	.	.	.
4G#/	(12G#\L	.	6cc##X/	4cc##\	.	.
.	12f#\J)	.	.	.	.	.
.	12rD	.	12e/	.	.	.
4B/	(12Gn\L	.	6dd#X/	4dd#\	.	.
.	12f#\J)	.	.	.	.	.
.	12rD	.	12e/	.	.	.
4A#X 4F#/)	(12F#\L	.	6ee/)	4ee\	.	.
.	12f#\J)	.	.	.	.	.
.	12rD	.	12e/	.	.	.
!!LO:LB:g=original
=16	=16	=16	=16	=16	=16	=16
(4B/	(12B\L	.	(6dd#X/	4dd#\	.	.
.	12g#\J)	.	.	.	.	.
.	12rD	.	12e#X/	.	.	.
4A#X/	(12A#\L	.	6cc#/	4cc#\	.	.
.	12g#\J)	.	.	.	.	.
.	12rD	.	12e#/	.	.	.
4B/	(12B\L	.	6dd#/	4dd#\	.	.
.	12g#\J)	.	.	.	.	.
.	12rD	.	12e#/	.	.	.
4A#/	(12A#\L	.	6cc#/	4cc#\	.	.
.	12g#\J)	.	.	.	.	.
.	12rD	.	12e#/	.	.	.
=17	=17	=17	=17	=17	=17	=17
4B/	(12B\L	.	6dd#X/	4dd#\	.	.
.	12g#\J)	.	.	.	.	.
.	12rD	.	12e#X/	.	.	.
4A#X/	(12A#\L	.	6ee/	4een\	.	.
.	12g#\J)	.	.	.	.	.
.	12rD	.	12f#/	.	.	.
4c# 4An/	(12A\L	.	6ee#X/	4ee#\	.	.
.	12g#\J)	.	.	.	.	.
.	12rD	.	12f#/	.	.	.
4B#X 4G#/)	(12G#\L	.	6ff#/)	4ff#\	.	.
.	12g#\J)	.	.	.	.	.
.	12rD	.	12f#/	.	.	.
=18	=18	=18	=18	=18	=18	=18
(4c#/	(12c#\L	.	(6ee#X/	4ee#\	.	.
.	12a#X\J)	.	.	.	.	.
.	12rD	.	12gn/	.	.	.
4B#X/	(12B#\L	.	6ff#/	4ff#\	.	.
.	12a#\J)	.	.	.	.	.
.	12rD	.	12g#X/	.	.	.
4d#X/	(12Bn\L	.	6ff##X/	4ff##\	.	.
.	12a#\J)	.	.	.	.	.
.	12rD	.	12g#/	.	.	.
4dn/	(12B-X\L	.	6gg#/)	4gg#\	.	.
.	12b-X\J)	.	.	.	.	.
.	12rD	.	12g#/	.	.	.
*v	*v	*	*	*	*	*
*	*	*v	*v	*	*
!!LO:LB:g=original
=19	=19	=19	=19	=19
4f# 4d 4A\)	.	(12aa\L	.	f
.	.	12ff#\	.	.
.	.	12dd\J	.	.
4ryy	.	12a/L	.	.
.	.	12f#</	.	.
.	.	12d</J	.	.
12A\L	.	4ryy	.	.
12d\	.	.	.	.
12f#\J	.	.	.	.
4ryy	.	12a\L	.	.
.	.	12dd\	.	.
.	.	12ff#\J)	.	.
=20	=20	=20	=20	=20
2ryy	.	(12bb\L	.	.
.	.	12ff#\	.	.
.	.	12dd\J	.	.
.	.	12b/L	.	.
.	.	12f#</	.	.
.	.	12d</J	.	.
12A\L	.	4ryy	.	.
12d\	.	.	.	.
12f#\J	.	.	.	.
4ryy	.	12b\L	.	.
.	.	12dd\	.	.
.	.	12bb\J)	.	.
=21	=21	=21	=21	=21
4e#X 4G#\	.	(>12cc#/L	3	.
.	.	12b/	2	.
.	.	12e#X/J	1	.
4ryy	.	12c#/L	2	.
!	!	!LO:TX:b:i:t=m.s.	!	!
.	.	12B</	.	.
.	.	12E#X</J	.	.
12GG#/L	.	4ryy	.	.
12E#y/	.	.	.	.
12B/J	.	.	.	.
4ryy	.	12c#/L	.	.
.	.	12e#/	.	.
.	.	12cc#/J)	.	.
!!LO:LB:g=original
=22	=22	=22	=22	=22
2ryy	.	(>12dd/L	.	.
.	.	12b/	.	.
.	.	12en/J	.	.
.	.	12d/L	.	.
.	.	12B</	.	.
.	.	12En</J	.	.
12GG#/L	.	4ryy	.	.
12E/	.	.	.	.
12B/J	.	.	.	.
4ryy	.	12d/L	.	.
.	.	12e/	.	.
.	.	12dd/J)	.	.
=23	=23	=23	=23	=23
!!LO:TX:a:i:t=a tempo
8AA'/L	.	8r	.	p
.	.	(>(16qqcc#/LL	.	.
.	.	16qqdd/JJ	.	.
8AA#X'/	.	8cc#\L)	.	.
8BB'/	.	8aa 8ff#\	.	.
8BB#X'/J	.	8ee\J	.	.
*	*	*tuplet	*	*
!	!	!LO:TUP:b	!	!
8C#'\L	.	12cc#/L	.	.
.	.	12a/	.	.
8D'\	.	.	.	.
.	.	12b/J	.	.
!	!	!LO:TUP:b	!	!
8F#'\	.	12a/L	.	.
.	.	12e/	.	.
8D#X'\J	.	.	.	.
.	.	12f#/J	.	.
=24	=24	=24	=24	=24
8r	.	4.g#/	.	.
(8E\L	.	.	.	.
8e\	.	.	.	.
8dn\J)	.	8b\	.	.
8r	.	4.e/	.	.
(16qqc#/LL	.	.	.	.
16qqd/JJ	.	.	.	.
(8c#\L)	.	.	.	.
8B\	.	.	.	.
8A\J)	.	8f#/)	.	.
!!LO:PB:g=original
=25	=25	=25	=25	=25
8r	.	(8B/L	.	.
(8A\L	.	8c#/J	.	.
8F#\	.	4d/	.	.
8G#\J)	.	.	.	.
.	.	(16qqc#/LL	.	.
.	.	16qqd/JJ	.	.
8r	.	4c#/)	.	.
(8A\L	.	.	.	.
8G#\	.	4e/	.	.
8F#\J)	.	.	.	.
=26	=26	=26	=26	=26
*^	*	*	*	*
(4.B/	1E	.	8g#/L	.	.
.	.	.	8a/J	.	.
.	.	.	[4b\	1	.
8A/	.	.	.	.	.
8G#/L	.	.	8b\L]	.	.
8A/	.	.	8cc#\J	.	.
.	.	.	(16qqdd/LL	.	.
.	.	.	16qqee/JJ	.	.
8F#/	.	.	[4dd\))	.	.
8G#/J)	.	.	.	.	.
*v	*v	*	*	*	*
=27	=27	=27	=27	=27
(8EL 8AA\	.	8dd\L]	.	.
.	.	(>(16qqcc#/LL	.	.
.	.	16qqdd/JJ	.	.
8A\)	.	8cc#\)	.	.
8B'\	4	8aa 8ff#\	.	.
8B#X'\J	.	8ee\J	.	.
*	*	*Xtuplet	*	*
8c#'\L	.	12cc#/L	.	.
.	.	12a/	.	.
8d'\	.	.	.	.
.	.	12b/J	.	.
8d#X'\J	.	12a/L	.	.
.	.	12e/	.	.
8r	.	.	.	.
.	.	12f#/J	.	.
!!LO:LB:g=original
=28	=28	=28	=28	=28
*tuplet	*	*	*	*
!LO:TUP:a	!	!	!	!
12r	.	4.gn/	.	.
(12A#X\L	.	.	.	.
12B\J	.	.	.	.
!LO:TUP:a	!	!	!	!LO:HP:t=poco cresc.
12e\L	.	.	.	<
12d#X\	.	.	.	.
.	.	8b\	.	.
12dn\J)	.	.	.	.
!LO:TUP:a	!	!	!	!
12r	.	4.ee\	.	.
(12c#\L	.	.	.	.
12d\J	.	.	.	.
!LO:TUP:a	!	!	!	!
12c#\L	.	.	.	.
12B\	.	.	.	.
.	.	8cc#\)	.	.
12An\J)	.	.	.	.
=29	=29	=29	=29	=29
*Xtuplet	*	*	*	*
12r	.	(4.f#/	.	.
(12G#X\L	.	.	.	.
12A\J	.	.	.	.
12d\L	.	.	.	.
12c#\	.	.	.	.
.	.	8a/	.	.
12cn\J)	.	.	.	.
12r	.	4.dd\	.	.
(12B\L	.	.	.	.
12c#X\J	.	.	.	.
12B\L	.	.	.	.
12A\	.	.	.	.
.	.	8b\)	.	.
12G#\J)	.	.	.	.
=30	=30	=30	=30	=30
12r	.	(4.e#X/	.	.
(12F##X\L	.	.	.	.
12G#\J	.	.	.	.
12c#\L	.	.	.	.
12B#X\	.	.	.	.
.	.	[8g#/	.	.
12Bn\J	.	.	.	.
8A\L	.	8g#/L]	.	.
8F##\	.	8f#/J	.	.
8D\	.	4a/)	.	.
8C#\J)	.	.	.	.
!!LO:LB:g=original
=31	=31	=31	=31	=31
12r	.	(4.a#X/	.	.
(12B#X\L	.	.	.	.
12c#\J	.	.	.	.
12f#\L	.	.	.	>
12e#X\	.	.	.	.
.	.	[8cc#\	.	.
12en\J	.	.	.	.
8d\L	.	8cc#\L]	.	.
8B#\	.	8b\J	.	.
8F#\	.	[4dd\)	.	]]
8G#\J	.	.	.	.
=32	=32	=32	=32	=32
8A\)	.	(8dd\L]	.	.
8r	.	8cc#\	.	p
8r	.	8ee\	.	.
(8B\	4	8dd\J	.	.
8d\L	.	8ff#\L	.	<
8c#\	.	8ee\	.	.
8e\	1	8ggn\	.	.
8d\J	4	8ff#\J	.	.
*clefG2	*	*	*	*
=33	=33	=33	=33	=33
8f#/L	.	12aa\L	.	.
.	.	12ggn\	.	[
8e/	.	.	.	.
.	.	12bb\J	.	.
8gn/	1	12aa\L	.	.
.	.	12ee\	.	.
8f#/J	4	.	.	.
.	.	12ff#\J	.	.
8a/L	.	12dd\L	.	.
.	.	12cc#\	.	.
8g/	.	.	.	.
.	.	12ee\J	.	.
8b/	.	12dd\L	.	.
.	.	12ee\	.	.
8a/J)	.	.	.	.
.	.	12ff#\J)	.	.
!!LO:LB:g=original
=34	=34	=34	=34	=34
*^	*	*^	*	*
!	!	!	!	!	!	!LO:DY:t=%s espress.
(4gn/	12g\L	3	(4bb~/	6bb\	.	p
!	!	!	!	!	!	!LO:HP:a
.	12ee\J	.	.	.	.	>
.	12rb	.	.	12cc#\	.	.
4f#/	12f#\L	4	4aa/	6aa\	.	]
.	12ee\J	.	.	.	.	.
.	12rb	.	.	12cc#\	.	.
4g/	12g\L	.	4bb/	6bb\	.	.
!	!	!	!	!	!	!LO:HP:t=poco cresc.
.	12ee\J	.	.	.	.	<
.	12rb	.	.	12cc#\	.	.
4f#/	12f#\L	.	4aa/	6aa\	.	.
.	12ee\J	.	.	.	.	.
.	12rb	.	.	12cc#\	.	.
=35	=35	=35	=35	=35	=35	=35
4gn/	12g\L	.	4bb/	6bb\	.	.
.	12ee\J	.	.	.	.	.
.	12rb	.	.	12cc#\	.	.
4f#/	12f#\L	.	4bb#X/	6bb#\	.	.
.	12ee\J	.	.	.	.	.
.	12rb	.	.	12dd\	.	.
4a/	12fn\L	4	4ccc#/	6ccc#\	.	.
.	12ee\J	.	.	.	.	.
.	12rb	.	.	12dd\	.	.
4g 4e/)	12e\L	5	4ddd/)	6ddd\	.	.
.	12ee\J	.	.	.	.	.
.	12rb	.	.	12dd\	.	.
*v	*v	*	*	*	*	*
*	*	*v	*v	*	*
=36	=36	=36	=36	=36
4e 4A/	.	(12cc#\L	.	.
.	.	12ee\	.	.
.	.	12cc#\J	.	.
!	!	!LO:TX:t=P:problem:mixed beam	!	!
4ryy	.	12a\L	.	.
.	.	12e\	.	.
.	.	12c#</J	.	.
12A/L	.	4ryy	.	>
12c#/	.	.	.	.
12e/J	.	.	.	.
4ryy	.	12a\L	.	.
.	.	12cc#\	.	.
.	.	12ee\J)	.	]
!!LO:PB:g=original
=37	=37	=37	=37	=37
*^	*	*^	*	*
(<4d/	12d\L	.	(4ff#/	6ff#\	.	p
.	12b\J	.	.	.	.	.
.	12rb	.	.	12g#\	.	.
4c#/	12c#\L	.	4ee/	6ee\	.	.
.	12b\J	.	.	.	.	.
.	12rb	.	.	12g#\	.	.
!	!	!	!	!	!	!LO:HP:t=poco a poco cresc.
4d/	12d\L	.	4ff#/	6ff#\	.	<
.	12b\J	.	.	.	.	.
.	12rb	.	.	12g#\	.	.
4c#/	12c#\L	.	4ee/	6ee\	.	.
.	12b\J	.	.	.	.	.
.	12rb	.	.	12g#\	.	.
=38	=38	=38	=38	=38	=38	=38
4d/	12d\L	.	4ff#/	6ff#\	.	.
.	12b\J	.	.	.	.	.
.	12rb	.	.	12g#\	.	.
4c#/	12c#\L	.	4ff##X/	6ff##\	.	.
.	12b\J	.	.	.	.	.
.	12rb	.	.	12a\	.	.
4e 4cn/	12c\L	.	4gg#/	6gg#\	.	.
.	12b\J	.	.	.	.	.
.	12rb	.	.	12a\	.	.
4d#X/	12B\L	.	4aa/)	6aa\	.	.
.	12b\J)	.	.	.	.	.
.	12rb	.	.	12a\	.	.
=39	=39	=39	=39	=39	=39	=39
!	!	!	!LO:TX:b:i:t=m.s. sopra	!	!	!
(<4e/	12e\L	.	(4gg#/	6gg#\	.	.
.	12cc#\J	.	.	.	.	.
.	12rb	.	.	12a#X\	.	.
4d#X/	12d#\L	.	4ff#/	6ff#\	.	.
.	12cc#\J	.	.	.	.	.
.	12rb	.	.	12a#\	.	.
4e/	12e\L	.	4gg#/	6gg#\	.	.
.	12cc#\J	.	.	.	.	.
.	12rb	.	.	12a#\	.	.
4d#/	12d#\L	.	4ff#/	6ff#\	.	.
.	12cc#\J	.	.	.	.	.
.	12rb	.	.	12a#\	.	.
!!LO:LB:g=original
=40	=40	=40	=40	=40	=40	=40
4e/	12e\L	.	4gg#/	6gg#\	.	.
.	12cc#\J	.	.	.	.	.
.	12rb	.	.	12a#X\	.	.
4d#X/	12d#\L	.	4aa/	6aan\	.	.
.	12cc#\J	.	.	.	.	.
.	12rb	.	.	12b\	.	.
4f# 4dn/	12d\L	.	4aa#X/	6aa#\	.	.
.	12cc#\J	.	.	.	.	.
.	12rb	.	.	12b\	.	.
4e# 4c#/	12c#\L	.	4bb/)	6bb\	.	.
.	12cc#\J)	.	.	.	.	.
.	12rb	.	.	12b\	.	.
=41	=41	=41	=41	=41	=41	=41
(<4f#/	12f#\L	.	(4aa#X/	6aa#\	.	.
.	12dd#X\J	.	.	.	.	.
.	12rb	.	.	12b#X\	.	.
4e#X/	12e#\L	.	4bb/	6bb\	.	.
.	12dd#\J	.	.	.	.	.
.	12rb	.	.	12cc#\	.	.
4g# 4en/	12e\L	.	4bb#X/	6bb#\	.	.
.	12dd#\J	.	.	.	.	.
.	12rb	.	.	12cc#\	.	.
4f##X/	12d#X\L	.	[4ccc#/)	6ccc#\	.	.
.	12dd#\J	.	.	.	.	.
.	12rb	.	.	12cc#\	.	.
*v	*v	*	*	*	*	*
*	*	*v	*v	*	*
=42	=42	=42	=42	=42
!LO:N:n=1:acc=n#	!	!	!	!LO:DY:t=%s subito
4f#X 4dn/)	.	(12ccc#\L]	.	p
.	.	12bbn\	.	.
.	.	12gg#\J	.	.
4ryy	.	12ff#\L	.	.
.	.	12dd\	.	.
.	.	12b\J	.	.
4ryy	.	12g#/L	.	.
.	.	12f#</	.	.
.	.	12d</J	.	.
12ryy	.	12B</L	.	.
[6d\	.	12d</	.	.
.	.	12f#</J)	.	.
!!LO:LB:g=original
=43	=43	=43	=43	=43
4fn 4d] 4B-X/	.	(12ffn\L	.	.
.	.	12dd\	.	.
.	.	12b-X\J	.	.
4ryy	.	12g#X/L	.	.
!	!	!	!	!LO:HP:a
.	.	12fny</	.	<
.	.	12d</J	.	.
*clefF4	*	*	*	*
12B-X\L	.	4ryy	.	.
[[<12Fn\	.	.	.	.
[<12B-\J	.	.	.	[
!	!	!	!	!LO:HP:b=2
(<[>4d 4B-] 4F\]]	.	12d</L	.	>
.	.	12fn/	.	.
.	.	12g#/J)	.	.
=44	=44	=44	=44	=44
4d] 4G# 4E\)	.	(>12bn/L	.	]
.	.	12g#/	.	.
.	.	12e/J	.	.
4ryy	.	12d/L	.	.
.	.	12Bn/	.	.
!!LO:TX:a:i:t=pochissimo rit.
.	.	12G#</J	.	.
12E/L	.	4ryy	.	.
12BB/	.	.	.	.
12E/J	.	.	.	.
4ryy	.	12G#</L	.	.
.	.	12B/	.	.
.	.	12d/J)	.	.
=45	=45	=45	=45	=45
(12AA/L	.	8r	.	.
12AA#X/	.	.	.	.
!!LO:TX:a:i:t=a tempo
.	.	(16qqc#/LL	.	pp
.	.	16qqd/JJ	.	.
*	*	*	*below	*
.	.	(8c#/L)	2	.
12BB/J	.	.	.	.
12BB#X/L	.	8a 8f#/	.	.
12C#/	.	.	.	.
.	.	8e/J	.	.
12D/J	.	.	.	.
12D#X\L	.	8c#/L	.	.
12E\	.	.	.	.
*	*	*	*above	*
.	.	8e/	1	.
12E#X\J	.	.	.	.
12F#\L	.	8a/	.	.
12F##X\	.	.	.	.
.	.	8cc#/J)	.	.
12G#\J	.	.	.	.
!!LO:LB:g=original
=46	=46	=46	=46	=46
12A\L	.	8r	.	.
12A#X\	.	.	.	.
.	.	(>(16qqcc#/LL	.	.
.	.	16qqdd/JJ	.	.
.	.	8cc#\L)	.	.
12B\J	.	.	.	.
12B#X\L	.	8aa 8ff#\	.	.
12c#\	.	.	.	.
.	.	8ee\J	.	.
12d\J	.	.	.	.
*clefG2	*	*	*	*
12d#/L	.	8cc#\L	.	.
12e/	.	.	.	.
.	.	8ee\	.	.
12e#X/J	.	.	.	.
12f#/L	.	8aa\	.	.
12f##X/	.	.	.	.
.	.	8ccc#\J)	.	.
12g#X/J	.	.	.	.
=47	=47	=47	=47	=47
12a/L	.	8r	.	.
12a#X/	.	.	.	.
*	*	*8va	*	*
.	.	(>(16qqccc#/LL	.	.
.	.	16qqddd/JJ	.	.
.	.	8ccc#\L)	.	.
12b/J	.	.	.	.
12b#X\L	.	8aaa 8fff#\	.	.
12cc#\	.	.	.	.
.	.	8eee\J	.	.
12dd\J	.	.	.	.
12dd#X\L	.	8ccc#\L	.	.
12ee\	.	.	.	.
.	.	8eee\	.	.
12ee#X\J	.	.	.	.
12ff#\L	.	8aaa\	.	.
12ff##X\	.	.	.	.
.	.	8cccc#\J	.	.
12gg#\J)	.	.	.	.
*	*	*	*	*
!!LO:LB:g=original
=48	=48	=48	=48	=48
*	*	*	*	*
N(16aa\LL	.	8eeee\)	.	.
16aa#X\	.	.	.	.
16bb\	.	8r	.	.
16bb#X\JJ	.	.	.	.
4r	.	16ccc#\LL	.	.
.	.	16ddd\	.	.
.	.	16ddd#X\	.	.
.	.	16eee\JJ	.	.
2r	.	16eee#X\LL	.	.
.	.	16fff#\	.	.
.	.	16fff##X\	.	.
.	.	16ggg#\JJ	.	.
.	.	16aaa\LL	.	.
.	.	16aaa#X\	.	.
.	.	16bbb\	.	.
.	.	16bbb#X\JJ	.	.
=49	=49	=49	=49	=49
*ped	*	*	*	*
4ee 4g# 4e 4c#/	.	8cccc#\N)	.	.
*	*	*X8va	*	*
.	.	8r	.	.
4r	.	4r	.	.
2r	.	2r	.	.
*Xped	*	*	*	*
*clefF4	*	*	*	*
=50	=50	=50	=50	=50
*ped	*	*	*	*
4B 4E\	.	4ee 4dd 4g# 4e/	.	.
4r	.	4r	.	.
2r	.	2r	.	.
*Xped	*	*clefF4	*	*
=51	=51	=51	=51	=51
*ped	*	*	*	*
4AA 4AAA/	.	4c# 4A 4E\	.	.
4r	.	4r	.	.
2r	.	2r	.	.
*Xped	*	*	*	*
==	==	==	==	==
*-	*-	*-	*-	*-
!!!system-decoration: {(g1)}
!!!RDF**kern: i = editorial accidental
!!!RDF**kern: > = above
!!!RDF**kern: < = below
!!!RDF**kern: N = linked
!!!RDF**dynam: > = "dim.", fontstyle= "italic"
!!!ENC: Andrzej Gręziak
!!!EED: Katarzyna Serwa
!!!END: 2023-10-22
!!!EEV: 2023-11-16
